;FLAVOR:RepRap
;TIME:2161
M104 S195.000000
M109 S195.000000
G21 ;metric values
G90 ;absolute positioning
M82 ;set extruder to absolute mode
M107 ;start with the fan off
G28 X0 Y0 ;move X/Y to min endstops
G28 Z0 ;move Z to min endstops
G29 P1 M
G26 H195 B25
G29 P4
M851 Z-1.7
G1 Z15.0 F9000 ;move the platform down 15mm
G92 E0 ;zero the extruded length
G1 F200 E3 ;extrude 3mm of feed stock
G92 E0 ;zero the extruded length again
G1 F9000
;Put printing message on LCD screen
M117 Printing...
;Generated with Cura_SteamEngine 2.1.2
;LAYER_COUNT:236
;LAYER:0
M107
G0 F4800.000000 X44.495 Y48.612 Z0.300
G0 X45.575 Y47.841
;TYPE:SKIRT
G1 F1800.000 X45.984 Y47.449 E0.02685
G1 X46.501 Y47.064 E0.05740
G1 X46.785 Y46.903 E0.07287
G1 X46.802 Y46.885 E0.07405
G1 X47.275 Y46.447 E0.10460
G1 X47.798 Y46.071 E0.13513
G1 X48.365 Y45.763 E0.16571
G1 X48.965 Y45.527 E0.19627
G1 X49.589 Y45.367 E0.22680
G1 X50.229 Y45.286 E0.25738
G1 X50.873 Y45.284 E0.28790
G1 X51.513 Y45.363 E0.31846
G1 X52.139 Y45.519 E0.34904
G1 X52.740 Y45.752 E0.37959
G1 X53.307 Y46.058 E0.41013
G1 X53.869 Y46.461 E0.44291
G1 X55.541 Y47.838 E0.54557
G1 X55.949 Y48.133 E0.56943
G1 X58.066 Y49.929 E0.70101
G1 X60.670 Y50.308 E0.82573
G1 X63.270 Y49.912 E0.95038
G1 X65.374 Y48.099 E1.08201
G1 X65.771 Y47.808 E1.10534
G1 X67.443 Y46.411 E1.20861
G1 X67.963 Y46.029 E1.23919
G1 X68.525 Y45.714 E1.26973
G1 X69.122 Y45.472 E1.30026
G1 X69.745 Y45.305 E1.33083
G1 X70.384 Y45.216 E1.36141
G1 X71.028 Y45.207 E1.39193
G1 X71.669 Y45.278 E1.42250
G1 X72.296 Y45.428 E1.45305
G1 X72.900 Y45.654 E1.48362
G1 X73.471 Y45.953 E1.51417
G1 X74.001 Y46.320 E1.54472
G1 X74.510 Y46.786 E1.57743
G1 X74.934 Y47.038 E1.60081
G1 X75.443 Y47.433 E1.63134
G1 X75.753 Y47.740 E1.65202
G1 X75.916 Y47.822 E1.66067
G1 X76.453 Y48.178 E1.69121
G1 X76.942 Y48.599 E1.72179
G1 X77.302 Y48.987 E1.74687
G1 X77.399 Y49.103 E1.75404
G1 X77.781 Y49.623 E1.78462
G1 X78.096 Y50.185 E1.81516
G1 X78.339 Y50.782 E1.84571
G1 X78.506 Y51.405 E1.87628
G1 X78.595 Y52.043 E1.90681
G1 X78.604 Y52.688 E1.93738
G1 X78.533 Y53.329 E1.96795
G1 X78.384 Y53.956 E1.99849
G1 X78.158 Y54.560 E2.02906
G1 X77.912 Y55.041 E2.05466
G1 X76.738 Y57.072 E2.16585
G1 X76.665 Y57.220 E2.17367
G1 X76.500 Y57.527 E2.19019
G1 X72.916 Y63.690 E2.52809
G1 X72.906 Y63.732 E2.53014
G1 X72.674 Y64.333 E2.56067
G1 X72.370 Y64.902 E2.59125
G1 X71.997 Y65.428 E2.62181
G1 X71.562 Y65.904 E2.65237
G1 X71.072 Y66.322 E2.68290
G1 X70.531 Y66.678 E2.71359
G1 X68.094 Y68.073 E2.84668
G1 X66.888 Y81.362 E3.47911
G1 X66.790 Y81.999 E3.50965
G1 X66.614 Y82.619 E3.54020
G1 X66.362 Y83.213 E3.57078
G1 X66.039 Y83.771 E3.60134
G1 X65.650 Y84.285 E3.63189
G1 X65.200 Y84.746 E3.66243
G1 X64.696 Y85.148 E3.69298
G1 X64.146 Y85.485 E3.72355
G1 X63.559 Y85.752 E3.75412
G1 X62.944 Y85.943 E3.78464
G1 X62.309 Y86.057 E3.81522
G1 X61.827 Y86.091 E3.83812
G1 X60.804 Y86.111 E3.88661
G1 X59.787 Y86.098 E3.93482
G1 X59.144 Y86.049 E3.96538
G1 X58.512 Y85.922 E3.99593
G1 X57.900 Y85.717 E4.02652
G1 X57.319 Y85.439 E4.05705
G1 X56.777 Y85.090 E4.08760
G1 X56.282 Y84.677 E4.11816
G1 X55.841 Y84.207 E4.14871
G1 X55.463 Y83.685 E4.17925
G1 X55.152 Y83.120 E4.20982
G1 X54.913 Y82.521 E4.24039
G1 X54.750 Y81.897 E4.27095
G1 X54.678 Y81.406 E4.29447
G1 X53.374 Y68.126 E4.92691
G1 X50.929 Y66.750 E5.05989
G1 X50.388 Y66.399 E5.09045
G1 X49.894 Y65.985 E5.12100
G1 X49.456 Y65.512 E5.15155
G1 X49.079 Y64.989 E5.18211
G1 X48.770 Y64.423 E5.21268
G1 X48.533 Y63.824 E5.24321
G1 X48.523 Y63.785 E5.24511
G1 X44.890 Y57.642 E5.58337
G1 X44.721 Y57.333 E5.60006
G1 X44.642 Y57.176 E5.60839
G1 X43.461 Y55.166 E5.71889
G1 X43.169 Y54.591 E5.74945
G1 X42.951 Y53.984 E5.78002
G1 X42.810 Y53.356 E5.81053
G1 X42.747 Y52.714 E5.84110
G1 X42.765 Y52.069 E5.87168
G1 X42.862 Y51.432 E5.90222
G1 X43.037 Y50.812 E5.93276
G1 X43.287 Y50.218 E5.96330
G1 X43.610 Y49.659 E5.99390
G1 X43.955 Y49.196 E6.02127
G1 X44.052 Y49.080 E6.02843
G1 X44.495 Y48.612 E6.05898
G1 X44.993 Y48.203 E6.08952
G1 X45.538 Y47.858 E6.12009
G1 X45.575 Y47.841 E6.12202
G0 F4800.00000 X45.811 Y48.167
G1 F1800.000 X45.812 Y48.166 E6.12209
G1 X46.261 Y47.739 E6.15145
G1 X46.760 Y47.373 E6.18078
G1 X47.031 Y47.224 E6.19544
G1 X47.091 Y47.161 E6.19956
G1 X47.547 Y46.741 E6.22895
G1 X48.052 Y46.384 E6.25826
G1 X48.600 Y46.095 E6.28762
G1 X49.180 Y45.878 E6.31697
G1 X49.784 Y45.739 E6.34635
G1 X50.400 Y45.678 E6.37569
G1 X51.019 Y45.697 E6.40504
G1 X51.631 Y45.795 E6.43441
G1 X52.224 Y45.972 E6.46375
G1 X52.790 Y46.223 E6.49309
G1 X53.319 Y46.545 E6.52244
G1 X53.615 Y46.770 E6.54006
G1 X55.289 Y48.149 E6.64286
G1 X55.690 Y48.438 E6.66629
G1 X57.894 Y50.309 E6.80331
G1 X60.672 Y50.713 E6.93636
G1 X63.445 Y50.290 E7.06931
G1 X65.636 Y48.402 E7.20639
G1 X66.038 Y48.107 E7.23002
G1 X67.700 Y46.718 E7.33268
G1 X68.200 Y46.352 E7.36205
G1 X68.742 Y46.054 E7.39136
G1 X69.319 Y45.828 E7.42073
G1 X69.920 Y45.678 E7.45009
G1 X70.535 Y45.607 E7.47943
G1 X71.155 Y45.616 E7.50882
G1 X71.768 Y45.704 E7.53817
G1 X72.364 Y45.871 E7.56751
G1 X72.934 Y46.113 E7.59686
G1 X73.469 Y46.426 E7.62624
G1 X73.958 Y46.805 E7.65556
G1 X74.263 Y47.101 E7.67570
G1 X74.284 Y47.110 E7.67679
G1 X74.809 Y47.438 E7.70613
G1 X75.287 Y47.831 E7.73546
G1 X75.523 Y48.073 E7.75148
G1 X75.800 Y48.217 E7.76627
G1 X76.308 Y48.572 E7.79565
G1 X76.766 Y48.989 E7.82500
G1 X76.995 Y49.244 E7.84125
G1 X77.092 Y49.360 E7.84841
G1 X77.458 Y49.860 E7.87778
G1 X77.757 Y50.402 E7.90712
G1 X77.983 Y50.979 E7.93649
G1 X78.132 Y51.580 E7.96584
G1 X78.204 Y52.195 E7.99519
G1 X78.195 Y52.814 E8.02453
G1 X78.107 Y53.427 E8.05388
G1 X77.941 Y54.024 E8.08325
G1 X77.566 Y54.841 E8.12585
G1 X76.385 Y56.885 E8.23774
G1 X76.307 Y57.042 E8.24605
G1 X76.155 Y57.326 E8.26131
G1 X72.540 Y63.542 E8.60212
G1 X72.517 Y63.635 E8.60667
G1 X72.290 Y64.211 E8.63601
G1 X71.991 Y64.753 E8.66535
G1 X71.624 Y65.252 E8.69470
G1 X71.196 Y65.699 E8.72404
G1 X70.714 Y66.088 E8.75339
G1 X70.332 Y66.331 E8.77485
G1 X67.714 Y67.829 E8.91781
G1 X66.489 Y81.326 E9.56014
G1 X66.394 Y81.938 E9.58949
G1 X66.220 Y82.532 E9.61883
G1 X65.971 Y83.099 E9.64818
G1 X65.652 Y83.630 E9.67754
G1 X65.266 Y84.115 E9.70692
G1 X64.822 Y84.546 E9.73624
G1 X64.325 Y84.916 E9.76561
G1 X63.785 Y85.220 E9.79498
G1 X63.211 Y85.451 E9.82431
G1 X62.611 Y85.606 E9.85368
G1 X61.818 Y85.691 E9.89148
G1 X60.809 Y85.711 E9.93931
G1 X59.792 Y85.698 E9.98752
G1 X59.174 Y85.650 E10.01689
G1 X58.568 Y85.523 E10.04624
G1 X57.983 Y85.319 E10.07560
G1 X57.429 Y85.041 E10.10498
G1 X56.916 Y84.695 E10.13431
G1 X56.452 Y84.285 E10.16366
G1 X56.044 Y83.819 E10.19301
G1 X55.700 Y83.304 E10.22236
G1 X55.424 Y82.749 E10.25174
G1 X55.223 Y82.163 E10.28110
G1 X55.076 Y81.367 E10.31947
G1 X53.752 Y67.879 E10.96181
G1 X51.125 Y66.401 E11.10468
G1 X50.606 Y66.063 E11.13403
G1 X50.135 Y65.661 E11.16338
G1 X49.719 Y65.202 E11.19274
G1 X49.366 Y64.693 E11.22210
G1 X49.082 Y64.143 E11.25144
G1 X48.896 Y63.630 E11.27730
G1 X45.234 Y57.438 E11.61826
G1 X45.079 Y57.153 E11.63363
G1 X45.007 Y57.009 E11.64126
G1 X43.805 Y54.964 E11.75369
G1 X43.527 Y54.410 E11.78307
G1 X43.322 Y53.826 E11.81240
G1 X43.194 Y53.220 E11.84176
G1 X43.145 Y52.603 E11.87109
G1 X43.175 Y51.984 E11.90046
G1 X43.286 Y51.375 E11.92980
G1 X43.473 Y50.784 E11.95918
G1 X43.736 Y50.223 E11.98855
G1 X44.068 Y49.701 E12.01787
G1 X44.262 Y49.453 E12.03279
G1 X44.359 Y49.337 E12.03996
G1 X44.786 Y48.888 E12.06933
G1 X45.267 Y48.499 E12.09865
G1 X45.795 Y48.174 E12.12803
G1 X45.811 Y48.167 E12.12886
G0 F4800.00000 X46.058 Y48.489
G1 F1800.000 X46.106 Y48.437 E12.13221
G1 X46.537 Y48.029 E12.16034
G1 X47.018 Y47.683 E12.18843
G1 X47.283 Y47.542 E12.20265
G1 X47.296 Y47.525 E12.20367
G1 X47.380 Y47.437 E12.20943
G1 X47.818 Y47.037 E12.23755
G1 X48.305 Y46.699 E12.26564
G1 X48.833 Y46.429 E12.29375
G1 X49.393 Y46.233 E12.32187
G1 X49.974 Y46.115 E12.34997
G1 X50.565 Y46.075 E12.37804
G1 X51.157 Y46.115 E12.40617
G1 X51.738 Y46.235 E12.43428
G1 X52.297 Y46.431 E12.46236
G1 X52.825 Y46.701 E12.49047
G1 X53.360 Y47.079 E12.52151
G1 X55.018 Y48.444 E12.62330
G1 X55.431 Y48.743 E12.64747
G1 X57.723 Y50.688 E12.78994
G1 X60.672 Y51.117 E12.93118
G1 X63.619 Y50.668 E13.07247
G1 X65.897 Y48.705 E13.21499
G1 X66.300 Y48.409 E13.23869
G1 X67.956 Y47.025 E13.34098
G1 X68.436 Y46.676 E13.36911
G1 X68.958 Y46.395 E13.39721
G1 X69.513 Y46.187 E13.42530
G1 X70.091 Y46.055 E13.45340
G1 X70.682 Y46.002 E13.48152
G1 X71.274 Y46.029 E13.50961
G1 X71.857 Y46.135 E13.53769
G1 X72.421 Y46.319 E13.56581
G1 X72.955 Y46.577 E13.59392
G1 X73.449 Y46.905 E13.62202
G1 X73.978 Y47.381 E13.65575
G1 X74.033 Y47.439 E13.65954
G1 X74.182 Y47.511 E13.66738
G1 X74.677 Y47.838 E13.69550
G1 X75.278 Y48.394 E13.73431
G1 X75.678 Y48.613 E13.75592
G1 X76.156 Y48.965 E13.78405
G1 X76.688 Y49.500 E13.81981
G1 X76.785 Y49.616 E13.82698
G1 X77.134 Y50.096 E13.85511
G1 X77.415 Y50.618 E13.88321
G1 X77.624 Y51.173 E13.91131
G1 X77.756 Y51.751 E13.93941
G1 X77.809 Y52.342 E13.96754
G1 X77.782 Y52.934 E13.99562
G1 X77.676 Y53.517 E14.02371
G1 X77.492 Y54.081 E14.05183
G1 X77.220 Y54.641 E14.08133
G1 X76.005 Y56.744 E14.19645
G1 X75.809 Y57.125 E14.21675
G1 X72.166 Y63.390 E14.56024
G1 X72.129 Y63.536 E14.56738
G1 X71.907 Y64.086 E14.59549
G1 X71.612 Y64.601 E14.62362
G1 X71.252 Y65.071 E14.65168
G1 X70.831 Y65.489 E14.67980
G1 X70.134 Y65.984 E14.72031
G1 X67.335 Y67.586 E14.87317
G1 X66.091 Y81.290 E15.52535
G1 X65.998 Y81.875 E15.55342
G1 X65.827 Y82.443 E15.58154
G1 X65.581 Y82.983 E15.60966
G1 X65.264 Y83.484 E15.63776
G1 X64.884 Y83.939 E15.66586
G1 X64.445 Y84.338 E15.69397
G1 X63.957 Y84.674 E15.72205
G1 X63.428 Y84.942 E15.75016
G1 X62.868 Y85.137 E15.77827
G1 X62.287 Y85.254 E15.80635
G1 X61.809 Y85.291 E15.82908
G1 X60.814 Y85.311 E15.87625
G1 X59.797 Y85.298 E15.92445
G1 X59.206 Y85.250 E15.95255
G1 X58.626 Y85.124 E15.98069
G1 X58.069 Y84.920 E16.00880
G1 X57.545 Y84.644 E16.03687
G1 X57.062 Y84.300 E16.06497
G1 X56.630 Y83.893 E16.09310
G1 X56.257 Y83.433 E16.12117
G1 X55.948 Y82.926 E16.14931
G1 X55.711 Y82.383 E16.17739
G1 X55.549 Y81.812 E16.20553
G1 X55.474 Y81.328 E16.22874
G1 X54.129 Y67.633 E16.88095
G1 X51.321 Y66.053 E17.03365
G1 X50.825 Y65.728 E17.06176
G1 X50.377 Y65.339 E17.08988
G1 X49.986 Y64.894 E17.11796
G1 X49.658 Y64.400 E17.14606
G1 X49.399 Y63.866 E17.17419
G1 X49.297 Y63.522 E17.19120
G1 X45.579 Y57.235 E17.53738
G1 X45.436 Y56.973 E17.55153
G1 X45.355 Y56.811 E17.56011
G1 X44.150 Y54.761 E17.67281
G1 X43.885 Y54.231 E17.70090
G1 X43.694 Y53.669 E17.72903
G1 X43.579 Y53.088 E17.75710
G1 X43.544 Y52.496 E17.78521
G1 X43.589 Y51.904 E17.81335
G1 X43.713 Y51.325 E17.84141
G1 X43.914 Y50.767 E17.86952
G1 X44.188 Y50.241 E17.89763
G1 X44.569 Y49.709 E17.92865
G1 X44.666 Y49.593 E17.93581
G1 X45.076 Y49.165 E17.96390
G1 X45.540 Y48.796 E17.99200
G1 X46.049 Y48.493 E18.02008
G1 X46.058 Y48.489 E18.02054
G0 F4800.00000 X46.305 Y48.812
G1 F1800.000 X46.307 Y48.810 E18.02068
G1 X46.401 Y48.708 E18.02725
G1 X46.812 Y48.321 E18.05401
G1 X47.274 Y47.995 E18.08081
G1 X47.539 Y47.860 E18.09490
G1 X47.586 Y47.801 E18.09848
G1 X47.670 Y47.713 E18.10424
G1 X48.088 Y47.333 E18.13102
G1 X48.556 Y47.015 E18.15784
G1 X49.063 Y46.767 E18.18459
G1 X49.601 Y46.592 E18.21140
G1 X50.158 Y46.496 E18.23819
G1 X50.723 Y46.478 E18.26498
G1 X51.285 Y46.541 E18.29178
G1 X51.832 Y46.682 E18.31856
G1 X52.355 Y46.899 E18.34539
G1 X52.841 Y47.187 E18.37217
G1 X53.106 Y47.387 E18.38791
G1 X54.771 Y48.758 E18.49013
G1 X55.172 Y49.048 E18.51358
G1 X57.552 Y51.068 E18.66154
G1 X60.674 Y51.522 E18.81106
G1 X63.792 Y51.047 E18.96055
G1 X66.158 Y49.008 E19.10858
G1 X66.567 Y48.708 E19.13262
G1 X68.213 Y47.332 E19.23431
G1 X68.671 Y47.001 E19.26109
G1 X69.171 Y46.738 E19.28786
G1 X69.704 Y46.548 E19.31468
G1 X70.258 Y46.435 E19.34148
G1 X70.822 Y46.401 E19.36826
G1 X71.386 Y46.447 E19.39508
G1 X71.937 Y46.573 E19.42187
G1 X72.465 Y46.774 E19.44865
G1 X72.960 Y47.048 E19.47546
G1 X73.410 Y47.389 E19.50222
G1 X73.687 Y47.655 E19.52042
G1 X73.771 Y47.744 E19.52622
G1 X73.788 Y47.765 E19.52750
G1 X74.075 Y47.912 E19.54279
G1 X74.537 Y48.238 E19.56959
G1 X74.988 Y48.669 E19.59915
G1 X75.026 Y48.712 E19.60187
G1 X75.062 Y48.726 E19.60370
G1 X75.552 Y49.008 E19.63050
G1 X75.997 Y49.357 E19.65730
G1 X76.382 Y49.757 E19.68362
G1 X76.479 Y49.873 E19.69078
G1 X76.810 Y50.331 E19.71757
G1 X77.073 Y50.832 E19.74438
G1 X77.263 Y51.364 E19.77116
G1 X77.376 Y51.918 E19.79796
G1 X77.410 Y52.482 E19.82474
G1 X77.364 Y53.046 E19.85156
G1 X77.239 Y53.597 E19.87833
G1 X77.037 Y54.125 E19.90513
G1 X76.873 Y54.441 E19.92200
G1 X75.661 Y56.539 E20.03684
G1 X75.463 Y56.924 E20.05736
G1 X71.793 Y63.236 E20.40341
G1 X71.741 Y63.437 E20.41325
G1 X71.523 Y63.958 E20.44002
G1 X71.235 Y64.445 E20.46684
G1 X70.881 Y64.885 E20.49360
G1 X70.468 Y65.272 E20.52043
G1 X69.935 Y65.637 E20.55104
G1 X66.955 Y67.342 E20.71377
G1 X65.693 Y81.254 E21.37584
G1 X65.602 Y81.812 E21.40264
G1 X65.433 Y82.351 E21.42941
G1 X65.190 Y82.862 E21.45623
G1 X64.878 Y83.333 E21.48301
G1 X64.502 Y83.755 E21.50979
G1 X64.071 Y84.120 E21.53656
G1 X63.592 Y84.421 E21.56338
G1 X63.076 Y84.651 E21.59015
G1 X62.532 Y84.806 E21.61696
G1 X61.800 Y84.891 E21.65189
G1 X60.819 Y84.911 E21.69839
G1 X59.802 Y84.898 E21.74660
G1 X59.239 Y84.851 E21.77337
G1 X58.687 Y84.724 E21.80022
G1 X58.160 Y84.522 E21.82697
G1 X57.666 Y84.247 E21.85377
G1 X57.215 Y83.905 E21.88059
G1 X56.818 Y83.503 E21.90737
G1 X56.481 Y83.049 E21.93417
G1 X56.211 Y82.552 E21.96098
G1 X56.014 Y82.022 E21.98778
G1 X55.872 Y81.289 E22.02316
G1 X54.507 Y67.386 E22.68527
G1 X51.517 Y65.704 E22.84787
G1 X51.046 Y65.393 E22.87462
G1 X50.622 Y65.018 E22.90145
G1 X50.256 Y64.587 E22.92825
G1 X49.954 Y64.109 E22.95505
G1 X49.723 Y63.593 E22.98184
G1 X49.650 Y63.331 E22.99473
G1 X45.793 Y56.793 E23.35451
G1 X45.703 Y56.613 E23.36405
G1 X44.495 Y54.558 E23.47703
G1 X44.244 Y54.052 E23.50380
G1 X44.067 Y53.515 E23.53059
G1 X43.967 Y52.959 E23.55737
G1 X43.946 Y52.394 E23.58417
G1 X44.006 Y51.831 E23.61100
G1 X44.144 Y51.283 E23.63779
G1 X44.358 Y50.760 E23.66457
G1 X44.644 Y50.272 E23.69138
G1 X44.875 Y49.966 E23.70955
G1 X44.972 Y49.850 E23.71671
G1 X45.365 Y49.443 E23.74353
G1 X45.811 Y49.095 E23.77034
G1 X46.301 Y48.814 E23.79711
G1 X46.305 Y48.812 E23.79733
G0 F4800.00000 X46.556 Y49.137
G1 F1800.000 X46.601 Y49.081 E23.80073
G1 X46.695 Y48.979 E23.80730
G1 X47.087 Y48.613 E23.83272
G1 X47.528 Y48.309 E23.85811
G1 X47.789 Y48.182 E23.87187
G1 X47.875 Y48.077 E23.87830
G1 X47.959 Y47.989 E23.88407
G1 X48.357 Y47.630 E23.90947
G1 X48.804 Y47.334 E23.93488
G1 X49.290 Y47.107 E23.96030
G1 X49.805 Y46.956 E23.98574
G1 X50.336 Y46.882 E24.01115
G1 X50.872 Y46.888 E24.03655
G1 X51.402 Y46.974 E24.06200
G1 X51.912 Y47.137 E24.08738
G1 X52.393 Y47.375 E24.11281
G1 X52.852 Y47.696 E24.13936
G1 X54.512 Y49.063 E24.24128
G1 X54.913 Y49.353 E24.26474
G1 X57.380 Y51.447 E24.41810
G1 X60.674 Y51.926 E24.57587
G1 X63.967 Y51.424 E24.73374
G1 X66.419 Y49.311 E24.88716
G1 X66.828 Y49.010 E24.91122
G1 X68.469 Y47.639 E25.01257
G1 X68.905 Y47.326 E25.03801
G1 X69.383 Y47.082 E25.06345
G1 X69.891 Y46.912 E25.08884
G1 X70.419 Y46.819 E25.11425
G1 X70.956 Y46.805 E25.13971
G1 X71.488 Y46.872 E25.16512
G1 X72.004 Y47.016 E25.19051
G1 X72.493 Y47.236 E25.21592
G1 X72.944 Y47.526 E25.24134
G1 X73.396 Y47.930 E25.27007
G1 X73.480 Y48.019 E25.27587
G1 X73.525 Y48.075 E25.27928
G1 X73.962 Y48.313 E25.30286
G1 X74.389 Y48.637 E25.32826
G1 X74.690 Y48.935 E25.34834
G1 X74.783 Y49.039 E25.35495
G1 X74.792 Y49.050 E25.35563
G1 X74.961 Y49.122 E25.36433
G1 X75.418 Y49.403 E25.38976
G1 X75.829 Y49.748 E25.41519
G1 X76.075 Y50.014 E25.43236
G1 X76.172 Y50.130 E25.43953
G1 X76.484 Y50.566 E25.46494
G1 X76.728 Y51.043 E25.49034
G1 X76.899 Y51.551 E25.51574
G1 X76.992 Y52.080 E25.54120
G1 X77.006 Y52.616 E25.56661
G1 X76.940 Y53.148 E25.59202
G1 X76.795 Y53.664 E25.61742
G1 X76.527 Y54.240 E25.64753
G1 X75.310 Y56.345 E25.76277
G1 X75.117 Y56.723 E25.78289
G1 X71.418 Y63.084 E26.13164
G1 X71.352 Y63.335 E26.14394
G1 X71.141 Y63.828 E26.16936
G1 X70.858 Y64.284 E26.19479
